X:1
T:Tipperary Blues
T:Tipperary Blues
T:By E. L. BOWMAN Composer Of 12th St. Rag And Colorado Blues 
T:by IMSLP - Public Domain
T:by IMSLP - Public Domain
T:by IMSLP - Public Domain
C:By E. L. BOWMAN Composer Of 12th St. Rag And Colorado Blues
Z:by IMSLP - Public Domain
%%score { 1 | 2 }
L:1/8
Q:1/4=150
M:4/4
K:Bb
V:1 treble nm="Piano" snm="Pno."
V:2 treble 
V:1
"^Allegro" [db]2 f[db]- [db]f [db]2 | [e_g_c']4- [egc']g[ec']g | [db]2 f[db]- [db]f [db]2 | %3
 [e_g_c']4- [egc']g[ec']g | [_d=egb]8- | [degb]2 z2 z4 | z2 [FBdf]2 [GBdg]2 [^Gd^g]2 | %7
 [Aea]2 z2 [fac'f'][Ff][Gg][Aa] | [Bdfb]3 [Adfa]- [Adfa]2 [Gdg]2 | %9
 [FBdf]2 [cc']2 [^G^g] [Aa]2 [FAcef]- | [FAcef]4- [FAcef](G/^G/ A)[FAcef]- | %11
 [FAcef]4-!8va(! [fac'e'f'][ff'][gg'][^g^g'] | [ac'e'a']3 [gc'e'g']- [gc'e'g']2 [fac'e'f']2 | %13
{/e'-} [ee']2{/e'-} [ee']2{/d'-} [dd']{/c'-} [cc']3 | [Bdfb]!8va)!(c/^c/) db- bgfd | %15
 [Bdfb]4- [Bdfb][Ff][Gg][Aa] | [Aceb]3 [Adfa]- [Adfa]2 [Gdg]2 | %17
 [FBdf]2 [cc']2 [^G^g] [Aa]2 [FAcef]- | [FAcef]4- [FAcef](G/^G/ A)[FAcef]- | %19
 [FAcef]4-!8va(! [fac'e'f'][ff'][gg'][^g^g'] | [ac'e'a']3 [gc'e'g']- [gc'e'g']2 [fac'e'f']2 | %21
{/e'-} [ee']2{/e'-} [ee']2{/d'-} [dd']{/c'-} [cc']3!8va)! | [Bdfb](c/^c/ d)b- bgfd | %23
 [Bdfb]4- [Bdfb](c/^c/ d)[Bdfb]- | [Bdfb]4- [Bdfb](c/^c/ d)[_Adf_a]- | %25
 [Adfa]4- [Adfa](c/^c/ d)[GBeg]- | [GBeg]2 [GBeg]2 [_GBe_g] [GBeg]3 | [FBdf]4- [FBdf][Ff][Gg][Aa] | %28
 [Bdfb]3 [Adfa]- [Adfa]2 [Gdg]2 | [FBdf]2 [cc']2 [^G^g] [Aa]2 [FAcef]- | %30
 [FAcef]4- [FAcef](G/^G/ A)[FAcef]- | [FAcef]4- [FAcef][Ff][Gg][Aa] | [Bdfb]4 [cc'] [Bdfb]3 | %33
 [_Adf_a]4 [cc'] [Bdfb]3 | [GBeg]2 [GBeg]2 [_GBe_g] [GBeg]3 | %35
 [FBdf]4-!8va(! [fbd'f'][ff'][gg'][aa'] | [bd'f'b']2 [gd'g']2 [ff'] [dd']3 | %37
 [ceac']4- [ceac']!8va)!(c/^c/) d[Bdfb]- | [Bdfb]8- | [Bdfb]4- [Bdfb]!8va(![ff'][gg'][aa'] | %40
 [bd'f'b']3 [fbd'f']- [fbd'f']2 [gbd'g']2 | [_ad'_a']2 [gg']2 [fbd'f'] [dd']3 | %42
 [Bdfb]4- [Bdfb]!8va)!(c/^c/) [_Adf_a]2- | [Adfa]8 | [Begb]3 [GBeg]- [GBeg]2 [Aea]2 | %45
 [Begb]2 [Begb]2 [Aa] [GBeg]3 | [FBdf]8 | z2 [Ff]2 [Gg]2 [^G^g]2 | %48
 [Acea][^G^g][Aa][FAcef]- [FAcef]4 |!8va(! [ae'a']2 [ge'g']2 [ff'] [dd']3 | %50
 [Bdfb]!8va)!(c/^c/) db- bgfd | [Bdfb]4- [Bdfb]!8va(![ff'][gg'][aa'] | %52
 [bd'f'b']3 [fbd'f']- [fbd'f']2 [gbd'g']2 | [_ad'_a']2 [gd'g']2 [ff'] [dfbd']3 | %54
 [Bdfb]4- [Bdfb]!8va)!(c/^c/) [_Adf_a]2- | [Adfa]8 | [Begb]3 [GBeg]- [GBeg]2 [Aea]2 | %57
 [Begb]2 [Begb]2 [Aa] [GBeg]3 | [FBdf]8 | z2 [Ff]2 [Gg]2 [^G^g]2 | %60
 [Acea][^G^g][Aa][FAcef]- [FAcef]4 | [=EGBd]4 [_EFAc]4 | [DFB]c/(^c/ d)[Bdb]- [Bdb]gfd | %63
 [DFB]4 !>![Bdb]2 z2 |] %64
V:2
 [B,DFB]2 [B,DFB]2 [B,DFB]2 [B,DFB]2 | [_CE_GA]2 [CEGA]2 [CEGA]2 [CEGA]2 | %2
 [B,DFB]2 [B,DFB]2 [B,DFB]2 [B,DFB]2 | [_CE_GA]2 [CEGA]2 [CEGA]2 [CEGA]2 | %4
[K:bass][I:staff -1] BG=E_D[I:staff +1] B,G,=E,_D, | B,,G,,=E,,_D,, B,,,C,,^C,,D,,- | %6
 D,,2 [F,B,D]2 [D,D]2 [=B,,=B,]2 | [C,C]2 z2 [F,,F,]2 z2 | [B,,,B,,]2 [F,B,D]2 [F,,F,]2 [F,B,D]2 | %9
 [B,,,B,,]2 [F,B,D]2 [D,D]2 [_D,_D]2 | [C,C]2 [F,A,E]2 [F,,F,]2 [F,A,E]2 | %11
 [C,C]2 [F,A,E]2 [F,,F,]2 [F,A,E]2 | [C,C]2 [F,A,E]2 [F,,F,]2 [F,A,E]2 | %13
 [C,C]2 [F,A,E]2 [F,,F,]2 [F,A,E]2 | [B,,,B,,]2 [F,,F,]2 [G,,G,]2 [A,,A,]2 | %15
 [B,,B,]2 [F,B,D]2 [F,B,D]2 z2 | [B,,,B,,]2 [F,B,D]2 [F,,F,]2 [F,B,D]2 | %17
 [B,,,B,,]2 [F,B,D]2 [D,D]2 [_D,_D]2 | [C,C]2 [F,A,E]2 [F,,F,]2 [F,A,E]2 | %19
 [C,C]2 [F,A,E]2 [F,,F,]2 [F,A,E]2 | [C,C]2 [F,A,E]2 [F,,F,]2 [F,A,E]2 | %21
 [C,C]2 [F,A,E]2 [F,,F,]2 [F,A,E]2 | [B,,,B,,]2 [F,,F,]2 [G,,G,]2 [A,,A,]2 | %23
 [B,,B,]2 [F,B,D]2 [F,B,D]2 z2 | [B,,,B,,]2 [F,B,D]2 [F,B,D]2 z2 | [F,,F,]2 [_A,B,D]2 [A,B,D]2 z2 | %26
 [G,,G,]2 [G,B,E]2 [_G,,_G,]2 [G,B,E]2 | [B,,B,]2 [F,B,D]2 [F,B,D]2 z2 | %28
 [B,,,B,,]2 [F,B,D]2 [F,,F,]2 [F,B,D]2 | [B,,,B,,]2 [F,B,D]2 [D,D]2 [_D,_D]2 | %30
 [C,C]2 [F,A,E]2 [F,,F,]2 [F,A,E]2 | [C,C]2 [F,A,E]2 [F,,F,]2 [F,A,E]2 | %32
 [B,,B,]2 [F,B,D]2 [F,B,D]2 [F,B,D]2 | [F,,F,]2 [F,_A,B,D]2 [F,A,B,D]2 [F,A,B,D]2 | %34
 [G,,G,]2 [G,B,E]2 [_G,,_G,]2 [G,B,E]2 | [B,,B,]2 [F,B,D]2 [F,B,D]2 z2 | %36
 [B,,B,]2 [F,B,D]2 [F,,F,]2 [F,B,D]2 | [C,,C,]2 [F,A,CE]2 [F,,F,]2 [F,A,CE]2 | %38
 [B,,B,]2 [G,,G,]2 [F,,F,]2 [D,,D,]2 | [B,,,B,,]2 [F,B,D]2 [F,B,D]2 z2 | %40
 [B,,B,]2 [F,B,D]2 [F,,F,]2 [F,B,D]2 | [B,,B,]2 [F,B,D]2 [F,,F,]2 [F,B,D]2 | %42
 [B,,B,]2 [F,B,D]2 [F,,F,]2 [F,B,D]2 | [F,,F,]2 [F,_A,B,D]2 [F,A,B,D]2 z2 | %44
 [G,,G,]2 [G,B,E]2 [E,,E,]2 [G,B,E]2 | [G,,G,]2 [G,B,E]2 [E,,E,]2 [G,B,E]2 | %46
 [B,,B,]2 [F,B,D]2 [F,,F,]2 [F,B,D]2 | [B,,B,]2 [F,B,D]2 [D,D]2 [_D,_D]2 | %48
 [C,C]2 [F,A,E]2 [F,,F,]2 [F,A,E]2 | [C,C]2 [F,A,E]2 [F,,F,]2 [F,A,E]2 | %50
 [B,,,B,,]2 [F,,F,]2 [G,,G,]2 [A,,A,]2 | [B,,B,]2 [F,B,D]2 [F,B,D]2 z2 | %52
 [B,,B,]2 [F,B,D]2 [F,,F,]2 [F,B,D]2 | [B,,B,]2 [F,B,D]2 [F,,F,]2 [F,B,D]2 | %54
 [B,,B,]2 [F,B,D]2 [F,,F,]2 [F,B,D]2 | [F,,F,]2 [F,_A,B,D]2 [F,A,B,D]2 z2 | %56
 [G,,G,]2 [G,B,E]2 [E,,E,]2 [G,B,E]2 | [G,,G,]2 [G,B,E]2 [E,,E,]2 [G,B,E]2 | %58
 [B,,B,]2 [F,B,D]2 [F,,F,]2 [F,B,D]2 | [B,,B,]2 [F,B,D]2 [D,D]2 [_D,_D]2 | %60
 [C,C]2 [F,A,E]2 [F,,F,]2 [F,A,E]2 | [G,,G,]2 [C,=E,B,]2 [F,,F,]2 [_E,F,A,]2 | %62
 [B,,B,]2 [F,,F,]2 [G,,G,]2 [A,,A,]2 | [B,,B,]4 !>![B,,,B,,]2 z2 |] %64

